img/icons/icon-files.svg

<svg width="27" height="27" viewBox="0 0 27 27" fill="none" xmlns="http://www.w3.org/2000/svg">
<path d="M1.79438 23.625H16.2056C17.1945 23.625 18 22.8195 18 21.8295V6.1875C18 6.11438 17.9854 6.04125 17.9573 5.97262C17.9291 5.90287 17.8875 5.841 17.8346 5.78925L12.2108 0.165375C12.159 0.113625 12.096 0.072 12.0274 0.04275C11.9587 0.014625 11.8856 0 11.8125 0H1.79438C0.8055 0 0 0.8055 0 1.79438V21.8306C0 22.8195 0.8055 23.625 1.79438 23.625ZM12.375 1.92037L16.0796 5.625H12.375V1.92037ZM1.125 1.79438C1.125 1.42537 1.42537 1.125 1.79438 1.125H11.25V6.1875C11.25 6.498 11.502 6.75 11.8125 6.75H16.875V21.8295C16.875 22.1985 16.5746 22.5 16.2056 22.5H1.79438C1.42537 22.5 1.125 22.1985 1.125 21.8295V1.79438Z" fill="#007A65"/>
<path d="M5.48438 10.5547H12.5156C12.8261 10.5547 13.0781 10.3027 13.0781 9.99219C13.0781 9.68169 12.8261 9.42969 12.5156 9.42969H5.48438C5.17388 9.42969 4.92188 9.68169 4.92188 9.99219C4.92188 10.3027 5.17388 10.5547 5.48438 10.5547Z" fill="#007A65"/>
<path d="M5.48438 14.3594H12.5156C12.8261 14.3594 13.0781 14.1074 13.0781 13.7969C13.0781 13.4864 12.8261 13.2344 12.5156 13.2344H5.48438C5.17388 13.2344 4.92188 13.4864 4.92188 13.7969C4.92188 14.1074 5.17388 14.3594 5.48438 14.3594Z" fill="#007A65"/>
<path d="M5.48438 18.1626H12.5156C12.8261 18.1626 13.0781 17.9106 13.0781 17.6001C13.0781 17.2896 12.8261 17.0376 12.5156 17.0376H5.48438C5.17388 17.0376 4.92188 17.2896 4.92188 17.6001C4.92188 17.9106 5.17388 18.1626 5.48438 18.1626Z" fill="#007A65"/>
<path d="M25.4824 3.375H20.2455C19.935 3.375 19.683 3.627 19.683 3.9375C19.683 4.248 19.935 4.5 20.2455 4.5H25.4824C25.6984 4.5 25.875 4.6755 25.875 4.89262V25.4835C25.875 25.6995 25.6984 25.875 25.4824 25.875H10.5176C10.3016 25.875 10.125 25.6995 10.125 25.4824C10.125 25.1719 9.873 24.9199 9.5625 24.9199C9.252 24.9199 9 25.1719 9 25.4824C9 26.3194 9.68062 27 10.5176 27H25.4824C26.3194 27 27 26.3194 27 25.4824V4.89262C27 4.05562 26.3194 3.375 25.4824 3.375Z" fill="#007A65"/>
</svg>

<svg width="27" height="27" fill="none" xmlns="http://www.w3.org/2000/svg"><path d="M1.794 23.625h14.412c.989 0 1.794-.805 1.794-1.796V6.188a.568.568 0 00-.165-.398L12.21.165A.568.568 0 0011.813 0H1.793C.805 0 0 .805 0 1.794v20.037c0 .989.805 1.794 1.794 1.794zM12.375 1.92l3.705 3.705h-3.705V1.92zm-11.25-.126c0-.369.3-.669.67-.669h9.455v5.063c0 .31.252.562.563.562h5.062v15.08c0 .369-.3.67-.67.67H1.796a.671.671 0 01-.67-.67V1.793z" fill="#007A65"/><path d="M5.484 10.555h7.032a.563.563 0 000-1.125H5.484a.563.563 0 000 1.125zm0 3.805h7.032a.563.563 0 000-1.126H5.484a.563.563 0 000 1.125zm0 3.803h7.032a.563.563 0 000-1.125H5.484a.563.563 0 000 1.125z" fill="#007A65"/><path d="M25.482 3.375h-5.236a.563.563 0 000 1.125h5.236c.216 0 .393.176.393.393v20.59a.393.393 0 01-.393.392H10.518a.393.393 0 01-.393-.393.563.563 0 00-1.125 0C9 26.32 9.68 27 10.518 27h14.964A1.52 1.52 0 0027 25.482V4.892a1.52 1.52 0 00-1.518-1.517z" fill="#007A65"/></svg>
